X:1
T:Title
%%score { ( 1 3 ) | ( 2 4 ) }
L:1/8
Q:1/4=120
M:3/4
K:Eb
V:1 treble nm="Grand Piano"
V:3 treble 
V:2 bass 
V:4 bass 
V:1
 [B,EG]2 [B,FA]2 [C_G=A]2 | G2- [Ge]2 [Ac]2 | [GB]6 | G6 | G2 c2 B2 | E4 B2 | D6- | D4 z2 | %8
w: Chas.~H.~Gabriel * *||||||||
 [FA]2 [GB]2 [Ac]2 | d2 e2 [Ad]2 | [DAc]6 | [B,DF]6 | [B,DA]2 [B,DG]2 [B,DF]2 | [DAB]4 [DAc]2 | %14
w: ||||||
 [EGB]6- | [EGB]4 z2 | [Ge]2 [Ec]2 [Ge]2 | [Ad]6 | [Ad]2 [DFA]2 [DAc]2 | [EGB]6 | %20
w: ||||||
 [B,FB]2 [B,FB]2 [B,FB]2 | [Fc]4 [Fc]2 | d6- | [Ad]4 z2 | [Ge]2 [Gd]2 [Ec]2 | [EB]6 | %26
w: ||||||
 [=Ec]2 [EB]2 [CEG]2 | [CFA]6 | [DFA]2 [DFB]2 [Dc]2 | [DG]4 [DF]2 | E6- | E4 z2 |] %32
w: ||||||
V:2
 E,2 E,2 E,2 | z2 B,2 [E,E]2 | [E,E]6 | [E,B,E]6 | [E,B,E]2 [E,G,E]2 [E,G,E]2 | %5
 [E,G,B,]4 [E,G,B,]2 | [F,A,B,]6- | [F,A,B,]4 z2 | [B,,B,]2 [B,,B,]2 [B,,B,]2 | %9
 B,2- [B,-C]2 [B,,B,]2 | B,,6 | B,,6 | B,,2 B,,2 B,,2 | B,,4 B,,2 | E,6- | E,4 z2 | %16
 [E,B,]2 [E,G,]2 [E,B,]2 | [F,B,]6 | [B,,B,]2 B,,2 B,,2 | E,6 | D,2 D,2 D,2 | [C,=A,]4 [F,A,]2 | %22
 [B,,B,]6- | [B,,B,]4 z2 | [E,B,]2 [E,B,]2 [E,A,]2 | [E,G,]6 | [C,G,]2 [C,G,]2 C,2 | F,6 | %28
 B,,2 B,,2 [B,,B,]2 | [B,,B,]4 [B,,A,]2 | [E,G,]6- | [E,G,]4 z2 |] %32
V:3
 x6 | [EB]2 z2 z2 | x6 | x6 | x6 | x6 | x6 | x6 | x6 | A4 z2 | x6 | x6 | x6 | x6 | x6 | x6 | x6 | %17
 x6 | x6 | x6 | x6 | x6 | F6 | x6 | x6 | x6 | x6 | x6 | x6 | x6 | x6 | x6 |] %32
V:4
 x6 | E,4 z2 | x6 | x6 | x6 | x6 | x6 | x6 | x6 | B,,4 z2 | x6 | x6 | x6 | x6 | x6 | x6 | x6 | x6 | %18
 x6 | x6 | x6 | x6 | x6 | x6 | x6 | x6 | x6 | x6 | x6 | x6 | x6 | x6 |] %32

